svg/playlist_plus.svg

<svg xmlns="http://www.w3.org/2000/svg" viewBox="0 0 24 24"><path d="M2 16h8v-2H2m16 0v-4h-2v4h-4v2h4v4h2v-4h4v-2m-8-8H2v2h12m0 2H2v2h12z"/></svg>

<?xml version="1.0" encoding="UTF-8"?><!DOCTYPE svg PUBLIC "-//W3C//DTD SVG 1.1//EN" "http://www.w3.org/Graphics/SVG/1.1/DTD/svg11.dtd"><svg xmlns="http://www.w3.org/2000/svg" xmlns:xlink="http://www.w3.org/1999/xlink" version="1.1" id="mdi-playlist-plus" width="24" height="24" viewBox="0 0 24 24"><path d="M2,16H10V14H2M18,14V10H16V14H12V16H16V20H18V16H22V14M14,6H2V8H14M14,10H2V12H14V10Z" /></svg>
